src/assets/filled/ArchiveSlash.svg

<svg width="24" height="24" viewBox="0 0 24 24"  xmlns="http://www.w3.org/2000/svg">
<path d="M20.1201 3.88L3.39007 20.61C3.34007 20.41 3.32007 20.19 3.32007 19.95V5.86C3.32007 3.74 5.05007 2 7.18007 2H16.8201C18.2201 2 19.4501 2.75 20.1201 3.88Z" />
<path d="M21.7699 2.22988C21.4699 1.92988 20.9799 1.92988 20.6799 2.22988L2.22988 20.6899C1.92988 20.9899 1.92988 21.4799 2.22988 21.7799C2.37988 21.9199 2.56988 21.9999 2.76988 21.9999C2.96988 21.9999 3.15988 21.9199 3.30988 21.7699L21.7699 3.30988C22.0799 3.00988 22.0799 2.52988 21.7699 2.22988Z" />
<path d="M19.2899 7.70956L11.8999 15.0996C11.4399 15.5596 11.5299 16.3296 12.0899 16.6596L19.4799 21.0896C20.1499 21.4896 20.9899 21.0096 20.9899 20.2296V8.40956C20.9999 7.51956 19.9199 7.07956 19.2899 7.70956Z" />
</svg>

<?xml version="1.0" encoding="UTF-8"?>
<svg width="24" height="24" viewBox="0 0 24 24" xmlns="http://www.w3.org/2000/svg">
 <path d="m20.12 3.88-16.73 16.73c-0.05-0.2-0.07-0.42-0.07-0.66v-14.09c0-2.12 1.73-3.86 3.86-3.86h9.64c1.4 0 2.63 0.75 3.3 1.88z"/>
 <path d="m21.77 2.2299c-0.3-0.3-0.79-0.3-1.09 0l-18.45 18.46c-0.3 0.3-0.3 0.79 0 1.09 0.15 0.14 0.34 0.22 0.54 0.22s0.39-0.08 0.54-0.23l18.46-18.46c0.31-0.3 0.31-0.78 0-1.08z"/>
 <path d="m19.29 7.7096-7.39 7.39c-0.46 0.46-0.37 1.23 0.19 1.56l7.39 4.43c0.67 0.4 1.51-0.08 1.51-0.86v-11.82c0.01-0.89-1.07-1.33-1.7-0.7z"/>
</svg>
